src/svg/uf18d-stack-exchange.svg

<!-- Generated by IcoMoon.io -->
<svg version="1.1" xmlns="http://www.w3.org/2000/svg" width="23" height="32" viewBox="0 0 23 32">
<path d="M22.482 22.375v1.179c0 2.018-1.571 3.643-3.5 3.643h-1.018l-4.643 4.804v-4.804h-9.446c-1.929 0-3.5-1.625-3.5-3.643v-1.179h22.107zM22.482 16.554v4.554h-22.107v-4.554h22.107zM22.482 10.696v4.554h-22.107v-4.554h22.107zM22.482 8.196v1.196h-22.107v-1.196c0-2 1.571-3.625 3.5-3.625h15.107c1.929 0 3.5 1.625 3.5 3.625z"></path>
</svg>

<svg xmlns="http://www.w3.org/2000/svg" width="23" height="32"><path d="M22.482 22.375v1.179c0 2.018-1.571 3.643-3.5 3.643h-1.018l-4.643 4.804v-4.804H3.875c-1.929 0-3.5-1.625-3.5-3.643v-1.179h22.107zm0-5.821v4.554H.375v-4.554h22.107zm0-5.858v4.554H.375v-4.554h22.107zm0-2.5v1.196H.375V8.196c0-2 1.571-3.625 3.5-3.625h15.107c1.929 0 3.5 1.625 3.5 3.625z"/></svg>
